docs/pictures/pingouin.svg

<svg xmlns="http://www.w3.org/2000/svg" xmlns:xlink="http://www.w3.org/1999/xlink" xmlns:sketch="http://www.bohemiancoding.com/sketch/ns" viewBox="0 0 400 400" version="1.1" x="0px" y="0px">
  <title>Artboard 5 Copy</title>
  <desc>Created with Sketch.</desc>
  <g stroke="none" stroke-width="1" fill="none" fill-rule="evenodd" sketch:type="MSPage">
    <g sketch:type="MSArtboardGroup" fill="#000000">
      <path
        d="M98.0006154,323.476475 C73.3386931,298.309228 56.2165957,265.725663 50.2897915,229.381249 L2,201.501125 L50.1137554,173.722636 C63.2135655,90.0282806 135.630188,26 223.001417,26 C319.651868,26 398.002539,104.350671 398.002539,201.001122 C398.002539,289.163485 332.809474,362.099192 248.001577,374.230011 L248.001577,176.002211 C248.001577,134.577471 214.422718,101.000481 173.001096,101.000481 C131.570367,101.000481 98.0006154,134.579899 98.0006154,176.002211 L98.0006154,323.476475 L98.0006154,323.476475 Z M173.001096,201.001122 C186.808304,201.001122 198.001257,189.808169 198.001257,176.000962 C198.001257,162.193754 186.808304,151.000801 173.001096,151.000801 C159.193889,151.000801 148.000936,162.193754 148.000936,176.000962 C148.000936,189.808169 159.193889,201.001122 173.001096,201.001122 L173.001096,201.001122 Z"
        sketch:type="MSShapeGroup"></path>
    </g>
  </g>
</svg>

<?xml version="1.0" encoding="UTF-8"?>
<svg version="1.1" viewBox="0 0 400 400" xmlns="http://www.w3.org/2000/svg">
<g fill="none" fill-rule="evenodd">
<g fill="#000">
<path d="m98.001 323.48c-24.662-25.167-41.784-57.751-47.711-94.095l-48.29-27.88 48.114-27.778c13.1-83.694 85.516-147.72 172.89-147.72 96.65 0 175 78.351 175 175 0 88.162-65.193 161.1-150 173.23v-198.23c0-41.425-33.579-75.002-75-75.002-41.431 0-75 33.579-75 75.002v147.47zm75-122.48c13.807 0 25-11.193 25-25 0-13.807-11.193-25-25-25-13.807 0-25 11.193-25 25 0 13.807 11.193 25 25 25z"/>
</g>
</g>
</svg>
